packages/nodes-base/nodes/Adalo/adalo.svg

<?xml version="1.0" encoding="UTF-8"?>
<!DOCTYPE svg PUBLIC "-//W3C//DTD SVG 1.1//EN" "http://www.w3.org/Graphics/SVG/1.1/DTD/svg11.dtd">
<svg xmlns="http://www.w3.org/2000/svg" version="1.1" width="438px" height="438px" style="shape-rendering:geometricPrecision; text-rendering:geometricPrecision; image-rendering:optimizeQuality; fill-rule:evenodd; clip-rule:evenodd" xmlns:xlink="http://www.w3.org/1999/xlink">
<g><path style="opacity:0.999" fill="#09a595" d="M 199.5,-0.5 C 205.833,-0.5 212.167,-0.5 218.5,-0.5C 218.5,6.83333 218.5,14.1667 218.5,21.5C 134.502,25.3789 74.3355,65.0456 38,140.5C 14.1595,201.337 17.9928,260.337 49.5,317.5C 42.5393,320.647 35.8727,324.313 29.5,328.5C 12.4851,300.122 2.48507,269.455 -0.5,236.5C -0.5,224.5 -0.5,212.5 -0.5,200.5C 9.13611,119.029 50.1361,59.1953 122.5,21C 147.118,9.59915 172.784,2.43248 199.5,-0.5 Z"/></g>
<g><path style="opacity:0.999" fill="#ea4c2e" d="M 218.5,-0.5 C 224.5,-0.5 230.5,-0.5 236.5,-0.5C 323.23,10.0683 384.73,55.0683 421,134.5C 430.416,158.096 435.916,182.429 437.5,207.5C 437.5,214.5 437.5,221.5 437.5,228.5C 435.714,263.192 426.047,295.525 408.5,325.5C 401.549,321.863 394.882,317.863 388.5,313.5C 413.242,265.758 419.075,215.758 406,163.5C 383.782,95.6155 338.615,50.7822 270.5,29C 253.247,24.8432 235.914,22.3432 218.5,21.5C 218.5,14.1667 218.5,6.83333 218.5,-0.5 Z"/></g>
<g><path style="opacity:1" fill="#fefefe" d="M 218.5,21.5 C 235.914,22.3432 253.247,24.8432 270.5,29C 338.615,50.7822 383.782,95.6155 406,163.5C 419.075,215.758 413.242,265.758 388.5,313.5C 349.147,377.699 291.48,410.699 215.5,412.5C 143.597,409.23 88.2633,377.564 49.5,317.5C 17.9928,260.337 14.1595,201.337 38,140.5C 74.3355,65.0456 134.502,25.3789 218.5,21.5 Z"/></g>
<g><path style="opacity:1" fill="#343434" d="M 321.5,72.5 C 323.225,72.8425 323.725,73.8425 323,75.5C 319.373,81.9204 315.873,88.4204 312.5,95C 316.039,101.913 319.706,108.746 323.5,115.5C 322.277,116.614 320.944,116.781 319.5,116C 313.621,112.561 307.621,109.395 301.5,106.5C 295.129,109.57 288.795,112.736 282.5,116C 281.365,116.749 280.365,116.583 279.5,115.5C 282.992,108.684 286.325,101.851 289.5,95C 286.325,88.1488 282.992,81.3155 279.5,74.5C 280.365,73.4173 281.365,73.2506 282.5,74C 288.416,77.5421 294.583,80.7087 301,83.5C 308.277,80.448 315.111,76.7813 321.5,72.5 Z"/></g>
<g><path style="opacity:1" fill="#3b3b3b" d="M 226.5,80.5 C 229.392,82.7311 231.726,85.5644 233.5,89C 237.871,89.1725 242.204,89.6725 246.5,90.5C 243.5,92.5 240.5,94.5 237.5,96.5C 236.833,100.833 236.167,105.167 235.5,109.5C 233.289,106.244 230.955,103.078 228.5,100C 224.5,99.6667 220.5,99.3333 216.5,99C 219.36,96.6397 222.36,94.473 225.5,92.5C 226.491,88.5546 226.824,84.5546 226.5,80.5 Z"/></g>
<g><path style="opacity:1" fill="#323232" d="M 215.5,188.5 C 209.759,179.359 204.259,170.026 199,160.5C 198.503,157.854 198.336,155.187 198.5,152.5C 202.36,141.567 210.027,137.4 221.5,140C 224.266,141.467 226.766,143.3 229,145.5C 263.333,202.167 297.667,258.833 332,315.5C 333.521,331.312 326.354,338.479 310.5,337C 307.098,335.6 304.264,333.433 302,330.5C 273.338,283.018 244.505,235.684 215.5,188.5 Z"/></g>
<g><path style="opacity:1" fill="#373737" d="M 295.5,149.5 C 298.608,152.328 301.275,155.662 303.5,159.5C 308.132,160.328 312.798,160.828 317.5,161C 313.912,163.377 310.412,165.877 307,168.5C 306.828,172.871 306.328,177.204 305.5,181.5C 303.167,178.167 300.833,174.833 298.5,171.5C 294.204,170.672 289.871,170.172 285.5,170C 288.36,167.64 291.36,165.473 294.5,163.5C 295.493,158.88 295.827,154.214 295.5,149.5 Z"/></g>
<g><path style="opacity:1" fill="#bbbbbb" d="M 198.5,152.5 C 198.336,155.187 198.503,157.854 199,160.5C 204.259,170.026 209.759,179.359 215.5,188.5C 186.53,235.662 157.697,282.995 129,330.5C 122.315,337.854 114.482,339.354 105.5,335C 98.9153,329.643 96.7486,322.809 99,314.5C 131.941,260.269 165.108,206.269 198.5,152.5 Z"/></g>
<g><path style="opacity:1" fill="#333333" d="M 210.5,257.5 C 227.101,255.945 236.767,263.278 239.5,279.5C 237.449,297.376 227.449,304.876 209.5,302C 196.276,295.348 191.776,284.848 196,270.5C 199.785,264.875 204.618,260.542 210.5,257.5 Z"/></g>
<g><path style="opacity:0.999" fill="#f5b915" d="M 388.5,313.5 C 394.882,317.863 401.549,321.863 408.5,325.5C 384.936,367.891 350.936,399.058 306.5,419C 279.86,430.359 252.193,436.525 223.5,437.5C 219.833,437.5 216.167,437.5 212.5,437.5C 138.71,433.357 80.21,401.357 37,341.5C 33.9711,337.438 31.4711,333.105 29.5,328.5C 35.8727,324.313 42.5393,320.647 49.5,317.5C 88.2633,377.564 143.597,409.23 215.5,412.5C 291.48,410.699 349.147,377.699 388.5,313.5 Z"/></g>
</svg>

<svg xmlns="http://www.w3.org/2000/svg" width="438" height="438" style="shape-rendering:geometricPrecision;text-rendering:geometricPrecision;image-rendering:optimizeQuality;fill-rule:evenodd;clip-rule:evenodd"><path fill="#09a595" d="M199.5-.5h19v22Q92.504 27.319 38 140.5q-35.76 91.255 11.5 177a145.6 145.6 0 0 0-20 11q-25.522-42.567-30-92v-36Q13.954 78.293 122.5 21q36.926-17.101 77-21.5" style="opacity:.999"/><path fill="#ea4c2e" d="M218.5-.5h18q130.095 15.852 184.5 135 14.124 35.394 16.5 73v21q-2.68 52.038-29 97a198 198 0 0 1-20-12q37.113-71.613 17.5-150Q372.673 61.674 270.5 29q-25.88-6.236-52-7.5z" style="opacity:.999"/><path fill="#fefefe" d="M218.5 21.5q26.12 1.264 52 7.5Q372.673 61.674 406 163.5q19.613 78.387-17.5 150-59.03 96.298-173 99-107.855-4.904-166-95-47.26-85.745-11.5-177 54.503-113.181 180.5-119" style="opacity:1"/><path fill="#343434" d="M321.5 72.5q2.588.514 1.5 3A547 547 0 0 0 312.5 95a602 602 0 0 0 11 20.5q-1.834 1.671-4 .5a233 233 0 0 0-18-9.5 725 725 0 0 0-19 9.5q-1.702 1.124-3-.5a578 578 0 0 0 10-20.5 577 577 0 0 0-10-20.5q1.298-1.625 3-.5a161 161 0 0 0 18.5 9.5q10.916-4.578 20.5-11" style="opacity:1"/><path fill="#3b3b3b" d="M226.5 80.5q4.338 3.346 7 8.5 6.556.258 13 1.5l-9 6-2 13a154 154 0 0 0-7-9.5l-12-1a86 86 0 0 1 9-6.5 36.9 36.9 0 0 0 1-12" style="opacity:1"/><path fill="#323232" d="M215.5 188.5a577 577 0 0 1-16.5-28 32.5 32.5 0 0 1-.5-8q5.79-16.4 23-12.5a32 32 0 0 1 7.5 5.5l103 170q2.281 23.718-21.5 21.5-5.103-2.1-8.5-6.5a20572 20572 0 0 0-86.5-142" style="opacity:1"/><path fill="#373737" d="M295.5 149.5q4.662 4.243 8 10 6.947 1.242 14 1.5a184 184 0 0 0-10.5 7.5 86.6 86.6 0 0 1-1.5 13l-7-10a86.6 86.6 0 0 0-13-1.5 86 86 0 0 1 9-6.5 49.9 49.9 0 0 0 1-14" style="opacity:1"/><path fill="#bbb" d="M198.5 152.5a32.5 32.5 0 0 0 .5 8 577 577 0 0 0 16.5 28 22390 22390 0 0 0-86.5 142q-10.027 11.031-23.5 4.5-9.877-8.036-6.5-20.5a19243 19243 0 0 1 99.5-162" style="opacity:1"/><path fill="#333" d="M210.5 257.5q24.901-2.333 29 22-3.077 26.814-30 22.5-19.836-9.978-13.5-31.5 5.677-8.437 14.5-13" style="opacity:1"/><path fill="#f5b915" d="M388.5 313.5a198 198 0 0 0 20 12q-35.346 63.587-102 93.5-39.96 17.038-83 18.5h-11q-110.685-6.214-175.5-96a63.5 63.5 0 0 1-7.5-13 145.6 145.6 0 0 1 20-11q58.145 90.096 166 95 113.97-2.702 173-99" style="opacity:.999"/></svg>
